X:594
T:Postie's Jig
T:Lassie, come dance with me
L:1/8
M:6/8
S:Colin Hume's website,  colinhume.com  - chords can also be printed below the stave.
Q:3/8=112
%%MIDI chordname dim 0 3 6 9
K:D
|: A | "D"d2d "/"d2c | "D"B2A "/"A2B | "Bm"A2F "/"E2F | "Em"G3- "/"G2A |\
"A"e2e "/"e2d | "A"c2c "/"c2B | "A"A2B "A7"A2G | "D"F3- "/"F2A |
"D"d2d "/"d2c | "D"B2A "/"A2B | "D"A2F "D7"E2D | "G"B3- "/"B2B |\
"Em"B2c "E7/G#"e2d | "D/A"B2A "Bm"A2d | "Em"c2A "A7"G2E | "D"D3- "/"D2E |
"D"F2E "/"D2E | "D/C#"F2E "/"D2E | "Bm"F2E "/"D2E | "Bm/A"F3- "/"F EF |\
"Em"G2F "/"E2F | "Em/D"G2F "/"E2F | "A7/C#"G2F "/"E2F | "A7"G3- "/"G AG |
"D"F2E "/"D2E | "D/C#"F2E "/"D2E | "Bm"F2E "/"D2E |1-3 "Bm/A"F3- "/"F2 F |\
"E7"E2F "/"^GFE | "A"A2B "F#m"c2d | "E7"e2d "/"c2B | "A"A3- "A7"A2 :|
|4 "Bm/A"F3- "/"F2 B | "G"B2c "E7/G#"e2d | "D/A"B2A "Bm"A2d | "Em"c2A "A7"G2E | "D"D3- "/"D2 |]

